src/asset/logo.svg

<svg width="16" height="16" viewBox="0 0 16 16" fill="none" xmlns="http://www.w3.org/2000/svg">
<path d="M4.14743 5.29808C4.14743 5.73126 3.99468 6.06182 3.68948 6.2892C3.38398 6.51686 2.93711 6.63055 2.34856 6.63055H1.20149C1.03271 6.63055 0.905905 6.47605 0.939137 6.31047L1.28195 4.5973C1.30701 4.47225 1.41691 4.38217 1.5443 4.38217H2.76483C3.68656 4.38217 4.14743 4.68767 4.14743 5.29808ZM3.43121 9.15439C3.18693 8.99348 2.85374 8.91273 2.43164 8.91273H0.628684C0.500714 8.91273 0.390817 9.0031 0.366039 9.12845L0.00515668 10.9585C-0.0274918 11.1238 0.0990211 11.278 0.267802 11.278H1.91538C2.50393 11.278 2.9648 11.1614 3.29799 10.9282C3.63118 10.695 3.79763 10.351 3.79763 9.8954C3.79763 9.5625 3.6752 9.3153 3.43121 9.15439ZM12.2023 9.89569C12.2023 9.5625 12.0801 9.31559 11.8359 9.15439C11.5916 8.99348 11.2584 8.91273 10.8363 8.91273H8.81325L8.34684 11.278H10.3197C10.9083 11.278 11.3692 11.1614 11.7024 10.9282C12.0355 10.695 12.2023 10.351 12.2023 9.89569ZM12.5524 5.29808C12.5524 4.68738 12.0915 4.38188 11.1698 4.38188H9.72974L9.27995 6.63055H10.7532C11.3418 6.63055 11.7886 6.51686 12.0941 6.2892C12.3993 6.06182 12.5524 5.73126 12.5524 5.29808ZM15.0759 8.57138C15.3479 8.96579 15.484 9.42928 15.484 9.96215C15.484 11.1728 14.9899 12.0916 14.0014 12.7189C13.013 13.3465 11.7248 13.6602 10.137 13.6602H3.73291C3.67111 13.6602 3.62447 13.6036 3.63643 13.543C3.64401 13.5045 3.67345 13.4739 3.71163 13.4657C4.42903 13.3101 5.05722 13.0614 5.5965 12.7192C6.5847 12.0919 7.07909 11.1731 7.07909 9.96244C7.07909 9.42928 6.94296 8.96579 6.67099 8.57167C6.45906 8.2653 6.17893 8.01053 5.82941 7.80822C5.70727 7.73739 5.71106 7.56074 5.83641 7.49573C6.33867 7.23484 6.74182 6.89961 7.04586 6.48975C7.41228 5.99565 7.59564 5.41002 7.59564 4.73227C7.59564 3.85513 7.24846 3.18059 6.55468 2.70836C6.37977 2.58942 6.18505 2.48535 5.97108 2.39645C5.88072 2.35884 5.82941 2.26294 5.84807 2.16703C5.86643 2.06996 5.95126 2 6.04979 2H11.9525C13.2628 2 14.265 2.23612 14.959 2.70806C15.6528 3.1803 16 3.85484 16 4.73198C16 5.40943 15.8166 5.99536 15.4502 6.48946C15.0838 6.98356 14.5728 7.3698 13.9178 7.64731C14.4177 7.86915 14.8037 8.17727 15.0759 8.57138Z" fill="#FF9E65"/>
</svg>

<svg width="16" height="16" fill="none" xmlns="http://www.w3.org/2000/svg"><path d="M4.147 5.298c0 .433-.152.764-.458.991-.305.228-.752.342-1.34.342H1.2a.268.268 0 01-.262-.32l.343-1.714a.268.268 0 01.262-.215h1.22c.923 0 1.383.306 1.383.916zm-.716 3.856c-.244-.16-.577-.241-1-.241H.63a.268.268 0 00-.263.215l-.36 1.83a.268.268 0 00.262.32h1.647c.589 0 1.05-.117 1.383-.35.333-.233.5-.577.5-1.033 0-.332-.123-.58-.367-.74zm8.771.742c0-.334-.122-.58-.366-.742-.244-.16-.578-.241-1-.241H8.813l-.466 2.365h1.973c.588 0 1.05-.117 1.382-.35.334-.233.5-.577.5-1.032zm.35-4.598c0-.61-.46-.916-1.382-.916H9.73L9.28 6.63h1.473c.589 0 1.036-.114 1.341-.342.305-.227.458-.558.458-.99zm2.524 3.273c.272.395.408.858.408 1.391 0 1.21-.494 2.13-1.483 2.757-.988.628-2.276.941-3.864.941H3.733a.098.098 0 01-.021-.194c.717-.156 1.345-.405 1.884-.747.989-.627 1.483-1.546 1.483-2.757 0-.533-.136-.996-.408-1.39a2.57 2.57 0 00-.842-.764.178.178 0 01.007-.312c.503-.261.906-.596 1.21-1.006.366-.494.55-1.08.55-1.758 0-.877-.348-1.551-1.041-2.024a3.257 3.257 0 00-.584-.312A.206.206 0 016.05 2h5.903c1.31 0 2.312.236 3.006.708S16 3.855 16 4.732c0 .677-.183 1.263-.55 1.757-.366.495-.877.88-1.532 1.158.5.222.886.53 1.158.924z" fill="#FF9E65"/></svg>
